resources/icons/zec.svg

<?xml version="1.0" encoding="iso-8859-1"?>
<!-- Generator: Adobe Illustrator 19.0.0, SVG Export Plug-In . SVG Version: 6.00 Build 0)  -->
<svg version="1.1" id="Layer_1" xmlns="http://www.w3.org/2000/svg" xmlns:xlink="http://www.w3.org/1999/xlink" x="0px" y="0px"
	 viewBox="0 0 2000 2000" style="enable-background:new 0 0 2000 2000;" xml:space="preserve">
<g>
	<path style="fill:#030302;" d="M1988.729,1002.545c-0.221,540.566-439.888,971.677-990.579,971.303
		C450.354,1973.477,10.698,1538.756,11,997.778c0.3-538.205,445.73-971.573,997.796-970.777
		C1549.434,27.781,1988.949,465.327,1988.729,1002.545z M1770.927,989.09c-9.445-206.48-79.26-387.506-229.988-532.351
		c-196.534-188.864-433.012-243.347-696.689-200.656c-296.78,48.05-621.732,333.969-614.706,757.469
		c6.758,407.341,345.577,744.474,771.309,742.56C1435.728,1754.158,1777.775,1405.882,1770.927,989.09z"/>
	<path style="fill:#DEA038;" d="M1770.878,989.111c6.896,416.771-335.15,765.047-770.025,767.001
		c-425.732,1.913-764.552-335.219-771.309-742.56c-7.026-423.5,317.927-709.419,614.706-757.469
		c263.677-42.691,500.155,11.792,696.689,200.656C1691.666,601.584,1761.481,782.61,1770.878,989.111z"/>
	<path style="fill:#030302;" d="M893.019,1464.525c-90.558,0-173.921,0-258.068,0c-16.713-98.052-4.847-182.802,61.797-262.097
		c117.094-139.322,212.91-295.502,342.048-437.391c-130.147,0-251.242,0-375.221,0c0-76.938,0-149.591,0-227.59
		c74.1,0,149.08,0,227.836,0c0-58.624,0-112.061,0-168.546c71.113,0,138.406,0,210.853,0c0,54.539,0,108.991,0,167.649
		c86.723,0,168.449,0,252.992,0c1.179,92.739,10.645,176.104-56.037,256.43c-116.135,139.9-212.759,295.534-337.731,441.331
		c141.257,0,274.036,0,408.707,0c0,78.229,0,151.103,0,228.403c-87.723,0-174.644,0-265.792,0c0,56.42,0,108.553,0,163.482
		c-71.785,0-139.321,0-211.386,0C893.019,1574.052,893.019,1521.963,893.019,1464.525z"/>
</g>
</svg>

<svg xmlns="http://www.w3.org/2000/svg" xml:space="preserve" viewBox="0 0 64 64">
  <path d="M1988.73 1002.55c-.22 540.56-439.89 971.67-990.58 971.3-547.8-.37-987.45-435.1-987.15-976.07C11.3 459.58 456.73 26.2 1008.8 27c540.63.78 980.15 438.33 979.93 975.55m-217.8-13.46c-9.45-206.48-79.26-387.5-230-532.35-196.53-188.86-433-243.35-696.68-200.66-296.78 48.05-621.73 333.97-614.7 757.47 6.75 407.34 345.57 744.48 771.3 742.56 434.88-1.95 776.93-350.23 770.08-767.02" style="fill:#030302" transform="scale(.032)"/>
  <path d="M1770.88 989.11c6.9 416.77-335.15 765.05-770.03 767-425.73 1.92-764.55-335.22-771.3-742.56-7.03-423.5 317.92-709.42 614.7-757.47 263.68-42.69 500.16 11.8 696.69 200.66 150.73 144.84 220.54 325.87 229.94 532.37" style="fill:#dea038" transform="scale(.032)"/>
  <path d="M893.02 1464.53H634.95c-16.71-98.06-4.85-182.8 61.8-262.1 117.1-139.32 212.9-295.5 342.05-437.4H663.58V537.46H891.4V368.9h210.85v167.65h253c1.18 92.74 10.64 176.1-56.04 256.43-116.14 139.9-212.76 295.53-337.73 441.33h408.7v228.4H1104.4v163.49H893.02z" style="fill:#030302" transform="scale(.032)"/>
</svg>
